assets/Index pointing at the viewer/Medium/Flat/index_pointing_at_the_viewer_flat_medium.svg

<svg width="32" height="32" viewBox="0 0 32 32" fill="none" xmlns="http://www.w3.org/2000/svg">
<path d="M30 7C30 7.7713 29.8254 8.5018 29.5135 9.15413L29.5312 9.15625L29.4557 9.27094C29.2878 9.59974 29.0846 9.9075 28.851 10.1892L28.7025 10.4147C27.5919 12.1012 27 14.0762 27 16.0955C27 17.3546 27.2302 18.603 27.6792 19.7792L29.875 25.5312L29.8608 25.5305C29.9514 25.8404 30 26.1683 30 26.5075C30 28.6121 28.1446 30.234 26.0589 29.9525L19 29H17.9844C16.4445 29 15.1771 27.8338 15.0171 26.3365C14.3559 26.7566 13.5713 27 12.7299 27C10.9958 27 9.50313 25.9663 8.83441 24.4816C8.14169 25.4036 7.03893 26 5.79688 26C3.69992 26 2 24.3001 2 22.2031V13.7969C2 11.6999 3.69992 10 5.79688 10C6.00371 10 6.20669 10.0165 6.40455 10.0484C7.00716 10.1121 8.01221 10.1716 9.04995 8.72764C9.79279 7.4692 11.1628 6.625 12.7299 6.625C13.1995 6.625 13.6514 6.7008 14.074 6.84083L14.0752 6.83594C14.1101 6.85013 14.1447 6.86391 14.179 6.87716C14.2103 6.88846 14.2414 6.90011 14.2724 6.91211C14.9591 7.1599 15.5614 7.1601 16.5322 6.125L16.5356 6.13779C17.22 5.43871 18.1743 5.00488 19.2299 5.00488C19.6179 5.00488 19.9923 5.0635 20.3446 5.17238C21.0743 3.31493 22.8836 2 25 2C27.7614 2 30 4.23858 30 7Z" fill="#C68D7B"/>
<path d="M19 6.99987C19 9.61233 20.6696 11.8348 23.0001 12.6585V22.0312H18.3554C17.6957 22.0312 17.0703 22.1779 16.51 22.4404V12.1295C16.51 11.8164 16.2561 11.5625 15.943 11.5625C15.6298 11.5625 15.376 11.8164 15.376 12.1295V23.2097C14.5291 24.0043 14 25.1337 14 26.3866C14 26.5267 14.0066 26.6652 14.0195 26.8018C14.3679 26.6916 14.6969 26.5379 15.0002 26.3471C15.0214 24.5122 16.5154 23.0312 18.3554 23.0312H23.0001V23.0314H26.5237C28.1044 23.0314 29.4387 24.0864 29.8608 25.5307L29.875 25.5314L27.6792 19.7794C27.2302 18.6032 27 17.3547 27 16.0957C27 14.0764 27.5919 12.1013 28.7025 10.4149L28.851 10.1894C27.9339 11.2956 26.5492 12.0002 25 12.0002C24.2889 12.0002 23.6125 11.8517 23.0001 11.5841V11.5839C21.2341 10.8123 20 9.05021 20 6.99987C20 6.35486 20.1221 5.73838 20.3445 5.17228C20.0254 5.07367 19.6882 5.01628 19.3391 5.00635C19.1195 5.63007 19 6.30102 19 6.99987ZM8.45972 13.7233C8.45972 13.4101 8.71358 13.1562 9.02673 13.1562C9.33989 13.1562 9.59375 13.4101 9.59375 13.7233V22.7298C9.59375 24.8959 11.2066 26.6853 13.2969 26.9627C13.1113 26.9873 12.9221 27 12.7299 27C10.3715 27 8.45972 25.0882 8.45972 22.7298V13.7233ZM3.14389 11.0806C2.43812 11.77 2 12.7322 2 13.7968V22.2031C2 24.3 3.69992 25.9999 5.79688 25.9999C5.9913 25.9999 6.18228 25.9853 6.36884 25.9571C4.54324 25.6813 3.14389 24.1056 3.14389 22.2031V11.0806ZM29.5312 9.15641L29.4557 9.2711C29.4755 9.23246 29.4947 9.19352 29.5135 9.1543L29.5312 9.15641Z" fill="#A9715F"/>
</svg>

<svg xmlns="http://www.w3.org/2000/svg" width="32" height="32" fill="none"><path fill="#C68D7B" d="M30 7a4.98 4.98 0 0 1-.486 2.154l.017.002-.075.115a5.004 5.004 0 0 1-.605.918l-.148.226a10.329 10.329 0 0 0-1.024 9.364l2.196 5.752h-.014a3.476 3.476 0 0 1-3.802 4.422L19 29h-1.016a2.985 2.985 0 0 1-2.967-2.663 4.271 4.271 0 0 1-6.183-1.855A3.797 3.797 0 0 1 2 22.203v-8.406a3.797 3.797 0 0 1 4.405-3.749c.602.064 1.607.124 2.645-1.32a4.268 4.268 0 0 1 5.024-1.887l.001-.005a6.375 6.375 0 0 0 .197.076c.687.248 1.29.248 2.26-.787l.004.013a3.759 3.759 0 0 1 2.694-1.133c.388 0 .762.059 1.115.167A5.002 5.002 0 0 1 30 7Z"/><path fill="#A9715F" d="M19 7a6.002 6.002 0 0 0 4 5.659v9.372h-4.645c-.66 0-1.285.147-1.845.41V12.13a.567.567 0 0 0-1.134 0v11.08a4.344 4.344 0 0 0-1.356 3.592c.348-.11.677-.264.98-.455a3.355 3.355 0 0 1 3.355-3.316h8.169a3.478 3.478 0 0 1 3.337 2.5h.014l-2.196-5.752a10.33 10.33 0 0 1 1.024-9.364l.148-.226A4.99 4.99 0 0 1 25 12a5.001 5.001 0 0 1-4.655-6.828 3.764 3.764 0 0 0-1.006-.166A5.992 5.992 0 0 0 19 7ZM8.46 13.723a.567.567 0 1 1 1.134 0v9.007a4.271 4.271 0 0 0 3.703 4.233A4.27 4.27 0 0 1 8.46 22.73v-9.007Zm-5.316-2.642A3.785 3.785 0 0 0 2 13.797v8.406a3.797 3.797 0 0 0 4.369 3.754 3.798 3.798 0 0 1-3.225-3.754V11.081ZM29.53 9.156l-.075.115.058-.117.017.002Z"/></svg>
